!!!!SEGMENT: pl-wumfc--n50544_moniuszko-stanislaw--dzieweczka-nad-rzeka-plynie-czysta-rzeczka.krn
!!!cenid: 18xx:4083
!!!COM: Moniuszko, Stanisław
!!!COM-rismID: pe30008351
!!!CDT: 1819/05/05-1872/06/04
!!!CNT: Polish
!!!OTL: Dzieweczka nad rzeką/Płynie czysta rzeczka
!!!PDT: 1855
!!!AGN:
!!!SMS-siglum: PL-Wumfc
!!!SMS-shelfmark: N50544
!!!SMS-shelfwork: W
!!!SMS-variant:
!!!SMS-altvar:
!!!NIFC-rismSourceID: 1001165199
!!!NIFC-rismChildID: 1001165199
!!!NIFC-islandoraID: pl-wumfc:6804
!!!URL-pdf-islandora: https://repozytorium.nifc.pl/islandora/object/pl-wumfc%3A6804/datastream/PDF/view
!!!URL-scan: https://polish.musicsources.pl/pl/lokalizacje/galeria/druki-muzyczne/12562 @EN{Scan on Polish Music Sources Website} @PL{Skany w portalu Dziedzictwo Muzyki Polskiej w otwartym dostępie}
!!!IIIF:
!!!ONB-nifc:
!!!AIN: 1 piano 1 soprn
!!!key: F
**kern	**kern	**dynam	**kern	**text	**text	**text	**dynam
*part2	*part2	*part2	*part1	*part1	*part1	*part1	*part1
*staff3	*staff2	*	*staff1	*staff1	*staff1	*staff1	*
*I"Fortepian.	*I"Fortepian.	*	*I"Głos.	*	*	*	*
*>[A,B,B,B,C]	*>[A,B,B,B,C]	*	*>[A,B,B,B,C]	*	*	*	*
*>A	*>A	*	*>A	*	*	*	*
*Ipiano	*Ipiano	*	*Isoprn	*	*	*	*
*ICklav	*ICklav	*	*ICvox	*	*	*	*
*IGacmp	*IGacmp	*	*IGsolo	*	*	*	*
*clefF4	*clefG2	*	*clefG2	*	*	*	*
*k[b-]	*k[b-]	*	*k[b-]	*	*	*	*
*F:	*F:	*	*F:	*	*	*	*
*M2/4	*M2/4	*	*M2/4	*	*	*	*
=1	=1	=1	=1	=1	=1	=1	=1
!!LO:TX:B:a:t=Allegro.
2r	16r	p	2r	.	.	.	.
.	(16ff\LL	.	.	.	.	.	.
.	16dd\	.	.	.	.	.	.
.	16cc\JJ	.	.	.	.	.	.
.	16a/LL	.	.	.	.	.	.
.	16cc/	.	.	.	.	.	.
.	16a/	.	.	.	.	.	.
.	16f/JJ	.	.	.	.	.	.
=2	=2	=2	=2	=2	=2	=2	=2
*	*^	*	*	*	*	*	*
4r	16d/LL	8.d\L	.	2r	.	.	.	.
.	16f/	.	.	.	.	.	.	.
.	16d/	.	.	.	.	.	.	.
.	16c/JJ	16c\Jk	.	.	.	.	.	.
(<4C/	16B-/LL	8.B-\L	.	.	.	.	.	.
.	16c/	.	.	.	.	.	.	.
.	16e/	.	.	.	.	.	.	.
.	16G/JJ)	16G\Jk	.	.	.	.	.	.
*	*v	*v	*	*	*	*	*	*
=3!|:	=3!|:	=3!|:	=3!|:	=3!|:	=3!|:	=3!|:	=3!|:
*>B	*>B	*	*>B	*	*	*	*
8FF\L)	8fL 8A'/	.	8.f/	Pły-	Two-	Lecz	.
8cJ 8F\	16r	.	.	.	.	.	.
.	(16gK 16c/	.	16g/	-nie	-je-	ci	.
8FF\L	8a 8f/	.	8a/	czys-	-go	mo-	.
8cJ 8F\	8b-J 8g/	.	8b-/	-ta	ob-	-je	.
!!LO:LB:g=original
=4	=4	=4	=4	=4	=4	=4	=4
8FF\L	8bn 8g#X'/)	.	8bn\	rzecz-	-ra-	o-	.
8cJ 8F\	4cc 4a^^\	.	4cc\	-ka,	-zu	-ko	.
8FF\L	.	.	.	.	.	.	.
8cJ 8F\	(8cc 8a\	.	8cc\	a	tam	na-	.
=5	=5	=5	=5	=5	=5	=5	=5
8FF\L	8ff 8a\)	.	8ff'\	pły-	szu-	-dob-	.
8cJ 8F\	4a 4f^>/	.	4a^>/	-nie	-ka	-na	.
8FF\L	.	.	.	.	.	.	.
8cJ 8F\	(8dd (8b-\	.	8dd\	sze-	ta-	dzie-	.
=6	=6	=6	=6	=6	=6	=6	=6
8C\L	8cc 8a'\))	.	8cc\	-ro-	-jem-	-wecz-	.
8c\J	4b- 4g^>/	.	4b-\	-ko,	-nie	-ko,	.
8C\L	.	.	.	.	.	.	.
8c\J	8g 8e/	.	8r	.	.	.	.
=7	=7	=7	=7	=7	=7	=7	=7
.	(8qa (8qf/	.	(8qa/	.	.	.	.
8C\L	8.gL 8.e/)	.	8.g/)	a	spoj-	po-	.
8cJ 8B- 8G\	.	.	.	.	.	.	.
.	16f#XK 16d#X/	.	16f#X/	w rzecz-	-rzyj	-wie	.
8C\L	8g 8e/	.	8g/	-ce	tu	co	.
8cJ 8A 8F\	8aJ 8fn/)	.	8a/	dzié-	do	głę-	.
!!LO:LB:g=original
=8	=8	=8	=8	=8	=8	=8	=8
8C\L	8b- 8g'/	.	8b-\	-wecz-	ra-	-bo-	.
8cJ 8G 8E\	4g 4e^>/	.	4g^^/	-ka	-zu,	-ko	.
8C\L	.	.	.	.	.	.	.
8B-J 8F 8D\	(8dd (8b-\	.	8dd\	za-	o-	tam	.
=9	=9	=9	=9	=9	=9	=9	=9
8C\L	8cc 8e'/))	.	8cc\	-glą-	-ba-	szu-	.
8B-J 8G\	4e 4c^>/	.	4e/	-da	-czysz	-kasz	.
8C\L	.	.	.	.	.	.	.
8cJ 8B- 8G\	(8g (8e/	.	8g/	głę-	go	pod	.
=10	=10	=10	=10	=10	=10	=10	=10
8F\L	8b- 8g'/))	.	8b-/	-bo-	we	rzecz-	.
8cJ 8A\	4a 4f^>/	.	4a/	-ko.	mnie.	-ką:	.
8FF\L	.	.	.	.	.	.	.
8cJ 8F\	8a 8e-X/	.	8r	.	.	.	.
=11	=11	=11	=11	=11	=11	=11	=11
!	!LO:TX:B:a:t=Più lento.	!	!LO:TX:B:a:t=Più lento.	!	!	!	!
8BB-L 8BBB-\	(8.b-L 8.d/	f >	8.b-\	Po-	Ach	Po-	f
8B-J 8F\	.	.	.	.	.	.	.
.	16ccK 16f/	.	16cc\	-wiedz	ja	-wie	.
8BB-/	8ddJ 8b-/)	.	8dd\	mi	nie	żeś	.
8r	8f 8d 8B-/	]	8ff\	dzie-	po-	ty	.
!!LO:PB:g=original
=12	=12	=12	=12	=12	=12	=12	=12
!	!	!	!	!	!	!	!LO:DY:a
8BB-\	8r	.	8ee\	-wecz-	-dob-	ład-	>
8r	4e 4c 4G</	.	4cc\	-ko	-ny	-na,	.
8BB-\	.	.	.	.	.	.	.
8r	[8e-X [>8B-< [8G-X</	.	8ee-X\	ach!	do	i	.
=13	=13	=13	=13	=13	=13	=13	=13
8BB-\	8e-] 8B-<] 8G-</]	.	8dd\	cze-	two-	po-	.
8rBB	4d 4B-< 4F</	.	4f/	-go	-jej	-wie	]
8BB-\	.	.	.	.	.	.	.
8rBB	8c 8A< 8F< 8E-X</	.	8a/	głę-	u-	żeś	.
=14	=14	=14	=14	=14	=14	=14	=14
8BB-\	8r	.	8cc\	-bo-	-ro-	mi-	.
8rGG	(8dL 8B-< 8F< 8D</	>	4b-\	-ko	-dy,	-ła;	.
8BB-\	8f 8d 8B-/)	.	.	.	.	.	.
8rAA	8b-J 8f 8d/	]	8dd\	tam	nie	a	.
=15	=15	=15	=15	=15	=15	=15	=15
!	!	!	!LO:TX:B:a:t=a tempo.	!	!	!	!LO:DY:a
(2BB- 2BBB-/	8r	p	(4ff\	szu-	ta-	te-	p
.	8gL 8f 8d/	.	.	.	.	.	.
.	8dd 8g 8f/	.	8g/)	-ka	-ki	-go	.
.	8gJ 8f 8d/	.	8ff\	pod	na-	ci	.
!!LO:LB:g=original
=16	=16	=16	=16	=16	=16	=16	=16
2BBn 2BBBn/	8r	.	(4ff\	rzecz-	-dob-	żad-	.
.	8gL 8f 8d/	.	.	.	.	.	.
.	8dd 8g 8f/	.	8g/)	-ką	-ny,	-na	.
.	8gJ 8f 8d/	.	[8dd^\	two-	tyl-	rzecz-	.
=17	=17	=17	=17	=17	=17	=17	=17
8C 8CC/)	8r	.	8dd\]	.	.	.	.
8r	8g 8e 8c/	.	(16cc\LL	-je	-ko	-ka	.
.	.	.	16b-\JJ)	.	.	.	.
(4C/	8r	.	8a/	cud-	ta-	nie	.
.	8b- 8g 8e/	.	8g/	-ne	-ki	mó-	.
=18	=18	=18	=18	=18	=18	=18	=18
4C#X/	8r	.	8b-\	o-	mło-	-wi-	.
.	4a 4g 4e/	.	8a/	-ko,	-dy,	-ła,	.
8D/)	.	.	8r	.	.	.	.
8r	8a 8f 8d/	.	8ff\	tam	nie	a	.
=19	=19	=19	=19	=19	=19	=19	=19
!	!LO:TX:i:b:t=ral-len-tan-do.:ext2=cd:dur=4qe	!	!LO:TX:i:a:t=ral-len-tan-do.:ext2=cd:dur=4qe	!	!	!	!
(2BB-/	8r	.	8ff'\	szu-	ta-	te-	.
.	8gL 8f 8d/	.	4g^^/	-ka	-ki	-go	.
.	8g 8f 8d/	.	.	.	.	.	.
.	8gJ 8f 8d/	.	8ff\	pod	na-	ci	.
!!LO:LB:g=original
=20	=20	=20	=20	=20	=20	=20	=20
2BBn/	8r	.	8ff'\	rzecz-	-dob-	żad-	.
.	8gL 8f 8d/	.	4g^^/	-ką	-ny,	-na	.
.	8g 8f 8d/	.	.	.	.	.	.
.	8gJ 8f 8d/	.	[8dd^\	two-	tyl-	rzecz-	.
=21	=21	=21	=21	=21	=21	=21	=21
8C'/)	8g 8e/	.	8dd\]	.	.	.	.
(16B-\LL	(16g/LL	.	(16g/LL	-je	-ko	-ka	.
16d\JJ	16b-/JJ	.	16b-/JJ)	.	.	.	.
8c\L)	8a/L)	.	8.a/	cud-	ta-	nie	.
8B-J 8C'\	8ccJ 8g 8e'/	.	.	.	.	.	.
.	.	.	16g/	-ne	-ki	mó-	.
=22	=22	=22	=22	=22	=22	=22	=22
!	!LO:TX:B:b:t=a tempo.	!	!LO:TX:B:a:t=a tempo. Presto.	!	!	!	!
8FF\L	16r	p	8g/	o-	mło-	-wi-	.
!	!LO:TX:i:b:t=scherzando.	!	!	!	!	!	!
.	(16fff\LL	.	.	.	.	.	.
8AJ 8C\	16ddd\	.	8f/	-ko?	-dy.	-ła.	.
.	16ccc\JJ	.	.	.	.	.	.
8FF\L	16aa\LL	.	4r	.	.	.	.
.	16ccc\	.	.	.	.	.	.
8AJ 8C\	16aa\	.	.	.	.	.	.
.	16ff\JJ	.	.	.	.	.	.
=23	=23	=23	=23	=23	=23	=23	=23
*	*^	*	*	*	*	*	*
8FF\L	16dd\LL	8.dd/L	.	2r	.	.	.	.
.	16ff\	.	.	.	.	.	.	.
8AJ 8C\	16dd\	.	.	.	.	.	.	.
.	16cc\JJ	16cc/Jk	.	.	.	.	.	.
8FF\L	16b-\LL	8.b-/L	.	.	.	.	.	.
.	16ee\	.	.	.	.	.	.	.
8GJ 8C\	16gg\	.	.	.	.	.	.	.
.	16g\JJ)	16g/Jk	.	.	.	.	.	.
*	*v	*v	*	*	*	*	*	*
!!LO:LB:g=original
=24	=24	=24	=24	=24	=24	=24	=24
8FF\L	(16a\LL	.	2r	.	.	.	.
.	16ff\	.	.	.	.	.	.
8AJ 8C\	16dd\	.	.	.	.	.	.
.	16cc\JJ	.	.	.	.	.	.
!	!LO:TX:i:b:t=ral-len-tan-do.:ext2=cd:dur=2q	!	!	!	!	!	!
8FF\L	16a/LL	.	.	.	.	.	.
.	16cc/	.	.	.	.	.	.
8AJ 8C\	16a/	.	.	.	.	.	.
.	16f/JJ	.	.	.	.	.	.
=25	=25	=25	=25	=25	=25	=25	=25
*	*^	*	*	*	*	*	*
8FF\L	16d/LL	8.d\L	.	2r	.	.	.	.
.	16f/	.	.	.	.	.	.	.
8AJ 8C\	16a/	.	.	.	.	.	.	.
.	16c/JJ	16c\Jk	.	.	.	.	.	.
8CC/L	16B-/LL	8.B-\L	.	.	.	.	.	.
.	16e/	.	.	.	.	.	.	.
8C/J	16g/	.	.	.	.	.	.	.
.	16G/JJ)	16G\Jk	.	.	.	.	.	.
*	*v	*v	*	*	*	*	*	*
=26:|!	=26:|!	=26:|!	=26:|!	=26:|!	=26:|!	=26:|!	=26:|!
*>C	*>C	*	*>C	*	*	*	*
!	!LO:TX:B:a:t=Tempo Io.	!	!	!	!	!	!
8C 8FF/	8f 8A/	.	2r	.	.	.	.
8r	8r	.	.	.	.	.	.
8c 8F\	8ff 8a\	.	.	.	.	.	.
8r	8r	.	.	.	.	.	.
=27	=27	=27	=27	=27	=27	=27	=27
8C 8FF/	8f 8A/	.	2r	.	.	.	.
8r	8r	.	.	.	.	.	.
8c 8F\	8ff 8a\	.	.	.	.	.	.
8r	8r	.	.	.	.	.	.
=28	=28	=28	=28	=28	=28	=28	=28
2FF 2FFF;/	2f 2c 2A;/	.	2r	.	.	.	.
==	==	==	==	==	==	==	==
*-	*-	*-	*-	*-	*-	*-	*-
!!!system-decoration: (p1){(p2)}
!!!ENC: Berenika Jozajtis
!!!END: 2022-08-19
!!!ENC: Kamil Watkowski
!!!END: 2022-09-24
!!!RDF**kern: > = above
!!!RDF**kern: < = below
!!!YEC: Copyright 2022 Narodowy Instytut Fryderyka Chopina (https://polishscores.org)
!!!YEM: License CC-BY-4.0 (https://creativecommons.org/licenses/by/4.0)
